findly-builder/apps/searchassist/src/assets/icons/search-interface/dummy-img.svg

<svg width="37" height="31" viewBox="0 0 37 31" fill="none" xmlns="http://www.w3.org/2000/svg">
<path fill-rule="evenodd" clip-rule="evenodd" d="M4.40625 0.125C2.29419 0.125 0.5625 1.85669 0.5625 3.96875V27.0312C0.5625 29.1433 2.29419 30.875 4.40625 30.875H32.5938C34.7058 30.875 36.4375 29.1433 36.4375 27.0312V3.96875C36.4375 1.85669 34.7058 0.125 32.5938 0.125H4.40625ZM4.40625 2.6875H32.5938C33.3145 2.6875 33.875 3.24805 33.875 3.96875V22.5869L25.2711 13.5034C25.0695 13.2906 24.7289 13.2961 24.5343 13.5153L19.8914 18.7432L12.5487 11.0006C12.3471 10.7879 12.0066 10.7935 11.8121 11.0126L3.125 20.7952V3.96875C3.125 3.24805 3.68555 2.6875 4.40625 2.6875ZM26.1875 5.25C24.7761 5.25 23.625 6.40112 23.625 7.8125C23.625 9.22388 24.7761 10.375 26.1875 10.375C27.5989 10.375 28.75 9.22388 28.75 7.8125C28.75 6.40112 27.5989 5.25 26.1875 5.25ZM12.2339 14.3889L25.4368 28.3125H4.40625C3.68555 28.3125 3.125 27.752 3.125 27.0312V24.6589L12.2339 14.3889ZM24.9463 16.9014L33.875 26.3105V27.0312C33.875 27.752 33.3145 28.3125 32.5938 28.3125H28.9602L21.6631 20.605L24.9463 16.9014Z" fill="#E4E5E7"/>
</svg>

<svg width="37" height="31" fill="none" xmlns="http://www.w3.org/2000/svg"><path fill-rule="evenodd" clip-rule="evenodd" d="M4.406.125A3.858 3.858 0 0 0 .563 3.969V27.03a3.858 3.858 0 0 0 3.843 3.844h28.188a3.858 3.858 0 0 0 3.843-3.844V3.97A3.858 3.858 0 0 0 32.594.125H4.406Zm0 2.563h28.188c.72 0 1.281.56 1.281 1.28v18.619l-8.604-9.084a.5.5 0 0 0-.737.012l-4.643 5.228-7.342-7.742a.5.5 0 0 0-.737.012l-8.687 9.782V3.97c0-.72.56-1.281 1.281-1.281ZM26.188 5.25a2.567 2.567 0 0 0-2.563 2.563 2.567 2.567 0 0 0 2.563 2.562 2.567 2.567 0 0 0 2.562-2.563 2.567 2.567 0 0 0-2.563-2.562Zm-13.954 9.139 13.203 13.924H4.407a1.266 1.266 0 0 1-1.282-1.282V24.66l9.109-10.27ZM24.946 16.9l8.929 9.41v.72c0 .721-.56 1.282-1.281 1.282H28.96l-7.297-7.708 3.283-3.704Z" fill="#E4E5E7"/></svg>
